collectives/static/img/icon/ionicon/md-list-box.svg

<svg enable-background="new 0 0 512 512" height="512" viewBox="0 0 512 512" width="512" xmlns="http://www.w3.org/2000/svg"><path d="m408 64h-304c-22.091 0-40 17.908-40 40v304c0 22.092 17.909 40 40 40h304c22.092 0 40-17.908 40-40v-304c0-22.092-17.908-40-40-40zm-104 304h-160v-48h160zm64-88h-224v-48h224zm0-88h-224v-48h224z"/></svg>

<?xml version="1.0" encoding="utf-8"?>
<!-- Generator: Adobe Illustrator 16.2.1, SVG Export Plug-In . SVG Version: 6.00 Build 0)  -->
<!DOCTYPE svg PUBLIC "-//W3C//DTD SVG 1.1//EN" "http://www.w3.org/Graphics/SVG/1.1/DTD/svg11.dtd">
<svg version="1.1" id="Layer_1" xmlns="http://www.w3.org/2000/svg" xmlns:xlink="http://www.w3.org/1999/xlink" x="0px" y="0px"
	 width="512px" height="512px" viewBox="0 0 512 512" enable-background="new 0 0 512 512" xml:space="preserve">
<g>
	<path d="M408,64H104c-22.091,0-40,17.908-40,40v304c0,22.092,17.909,40,40,40h304c22.092,0,40-17.908,40-40V104
		C448,81.908,430.092,64,408,64z M304,368H144v-48h160V368z M368,280H144v-48h224V280z M368,192H144v-48h224V192z"/>
</g>
</svg>
